X:5
T:Planxty Irwin
C:O'Carolan
M:3/4
K:D
L:1/8
A2 | "D" d4 c2 | "G" B3 c d2 | "A" A4 G2 | "D" F3 E D2 |
"G" G4 E2 | "D" F3 G A2 | "A" C4 D2 | E4 c2 | "D" d4 c2 |
"G" B3 c d2 | "A" A4 G2 | "D" F3 E D2 | "G" G3 F E2 |
"D" F3 G A2 | "A" D2 E2 C2 |1 "D" D4 A2 :|2 "D" D4 A2 ||
"D" d4 d2 | "G" d3 c d2 | "A" e4 e2 | e3 c A2 |
"D" f4 f2 | "E" e3 f d2 | "A" c2 d2 B2 | A2 B2 c2 |
"D" d4 c2 | "G" B3 c d2 | "A" A4 G2 | "D" F3 E D2 |
"G" G3 F E2 | "D" F2 G2 A2 | "A" D3 E C2 | "D" D4 ||

